<?xml version="1.0" encoding="UTF-8"?>
<map version="1.10" tiledversion="1.11.2" class="ZXSpectrumGameMaker" orientation="orthogonal" renderorder="left-down" width="132" height="116" tilewidth="8" tileheight="8" infinite="1" nextlayerid="3" nextobjectid="208">
 <editorsettings>
  <chunksize width="30" height="19"/>
 </editorsettings>
 <properties>
  <property name="adventureTexts" type="bool" value="true"/>
  <property name="adventureTextsAcceptWithFire" type="bool" value="true"/>
  <property name="adventureTextsBackgroundColor" type="int" value="1"/>
  <property name="adventureTextsClearScreen" type="bool" value="true"/>
  <property name="adventureTextsHideTiles" type="bool" value="false"/>
  <property name="adventureTextsLength" propertytype="adventureTextsLength" value="60"/>
  <property name="adventureTextsShowTiles" type="bool" value="true"/>
  <property name="adventureTextsSound" type="bool" value="false"/>
  <property name="ammo" type="int" value="100"/>
  <property name="ammoIncrement" type="int" value="10"/>
  <property name="animatePeriodEnemy" type="int" value="3"/>
  <property name="animatePeriodMain" type="int" value="1"/>
  <property name="animatePeriodTile" type="int" value="20"/>
  <property name="animatedTilesMode" propertytype="animatedTilesModes" value="Solid tiles disappears"/>
  <property name="arcadeMode" type="bool" value="false"/>
  <property name="backgroundAttribute" type="int" value="71"/>
  <property name="borderDamageColor" value="2"/>
  <property name="bright" type="int" value="1"/>
  <property name="bulletAnimation" type="bool" value="true"/>
  <property name="bulletDisableCollisions" type="bool" value="false"/>
  <property name="bulletDistance" type="int" value="20"/>
  <property name="bulletType" propertytype="bulletType" value="bullet"/>
  <property name="bulletsCollisionWithBullets" type="bool" value="true"/>
  <property name="buttonPauseEnabled" type="bool" value="true"/>
  <property name="buttonQuitEnabled" type="bool" value="true"/>
  <property name="checkpointsEnabled" type="bool" value="true"/>
  <property name="coinsEnabled" type="bool" value="true"/>
  <property name="coinsForAmmo" type="int" value="25"/>
  <property name="coinsForKey" type="int" value="50"/>
  <property name="coinsForLives" type="int" value="75"/>
  <property name="coinsIncrement" type="int" value="100"/>
  <property name="coinsInitial" type="int" value="0"/>
  <property name="consoleMode" propertytype="consoleMode" value="No"/>
  <property name="damageAmount" type="int" value="1"/>
  <property name="dropTile" type="int" value="175"/>
  <property name="enemiesAlertDistance" value="medium"/>
  <property name="enemiesBulletCollision" type="bool" value="true"/>
  <property name="enemiesCollisionProtaDamage" type="bool" value="true"/>
  <property name="enemiesNormalCollide" type="bool" value="false"/>
  <property name="enemiesPursuitCollide" type="bool" value="true"/>
  <property name="enemiesRespawn" type="bool" value="true"/>
  <property name="enemiesRespawnInScreen" type="bool" value="true"/>
  <property name="enemiesShoot" type="int" value="1"/>
  <property name="enemiesShootDirection" propertytype="enemiesShootDirection" value="all"/>
  <property name="enemiesShootOnlyLookingPlayer" type="bool" value="false"/>
  <property name="enemiesShootSpeed" value="slow"/>
  <property name="enemiesShootingLookAtPlayer" type="bool" value="false"/>
  <property name="enemiesSlowDown" type="bool" value="false"/>
  <property name="enemiesSound" type="bool" value="true"/>
  <property name="enemiesTrapShowWhileStatic" type="bool" value="false"/>
  <property name="fadeTilesFramesCount" type="int" value="20"/>
  <property name="fadeTilesInScreenMax" type="int" value="5"/>
  <property name="finalItemMode" propertytype="finalItemMode" value="Hide until finish"/>
  <property name="finalItemTile" type="int" value="224"/>
  <property name="fontCustom" propertytype="fontCustomTypes" value="Round"/>
  <property name="fullChangeScreenAnimation" type="bool" value="true"/>
  <property name="gameLanguage" value="es"/>
  <property name="gameMapOnlyVisited" type="bool" value="false"/>
  <property name="gameMapRooms" type="bool" value="true"/>
  <property name="gameMapSeparatedRooms" type="bool" value="true"/>
  <property name="gameMapXAdjustment" type="int" value="10"/>
  <property name="gameMapYAdjustment" type="int" value="10"/>
  <property name="gameName" value="Game Name"/>
  <property name="gameView" propertytype="gameView" value="side"/>
  <property name="glueMode" propertytype="glueModes" value="slow down"/>
  <property name="glueTileEnabled" type="bool" value="true"/>
  <property name="goalItems" type="int" value="1"/>
  <property name="graphicsModeUnshifted" type="bool" value="true"/>
  <property name="graphicsSpriteColors" type="bool" value="true"/>
  <property name="gravityLow" type="bool" value="false"/>
  <property name="hiScore" type="bool" value="false"/>
  <property name="hudMessagesEnabled" type="bool" value="true"/>
  <property name="hudShowAmmoMessage" type="bool" value="false"/>
  <property name="hudShowChecksMessage" type="bool" value="true"/>
  <property name="hudShowCoinsMessage" type="bool" value="true"/>
  <property name="hudShowDoorMessage" type="bool" value="false"/>
  <property name="hudShowEnemiesEnergyBar" type="bool" value="true"/>
  <property name="hudShowEnemiesWallMessage" type="bool" value="true"/>
  <property name="hudShowItemsMessage" type="bool" value="false"/>
  <property name="hudShowKeysMessage" type="bool" value="true"/>
  <property name="hudShowLivesMessage" type="bool" value="false"/>
  <property name="hudShowProtaEnergyBar" type="bool" value="true"/>
  <property name="idleTime" type="int" value="25"/>
  <property name="initialLife" type="int" value="5"/>
  <property name="ink" value="7"/>
  <property name="itemsCountdown" type="bool" value="true"/>
  <property name="itemsEnabled" type="bool" value="true"/>
  <property name="itemsMulticolor" type="bool" value="true"/>
  <property name="jetPackFuel" type="int" value="0"/>
  <property name="jumpCancelAllowed" type="bool" value="false"/>
  <property name="jumpDouble" type="bool" value="false"/>
  <property name="jumpFallingSprite" type="bool" value="true"/>
  <property name="jumpOnEnemies" type="bool" value="true"/>
  <property name="jumpType" propertytype="jumpType" value="accelerated"/>
  <property name="jumpWalls" type="bool" value="false"/>
  <property name="keysEnabled" type="bool" value="true"/>
  <property name="killJumpingOnTop" type="bool" value="false"/>
  <property name="laddersEnabled" type="bool" value="true"/>
  <property name="layoutSkipHeight" type="int" value="1"/>
  <property name="layoutSkipWidth" type="int" value="1"/>
  <property name="levelsMode" type="bool" value="false"/>
  <property name="lifeAmount" type="int" value="5"/>
  <property name="livesDeadBackgroundColor" type="int" value="2"/>
  <property name="livesEnergy" type="int" value="3"/>
  <property name="livesMode" propertytype="livesMode" value="show graveyard"/>
  <property name="mainCharacterExtraFrame" type="bool" value="true"/>
  <property name="maxAnimatedTilesPerScreen" type="int" value="5"/>
  <property name="maxEnemiesPerScreen" type="int" value="3"/>
  <property name="mechanicalBeltEnabled" type="bool" value="true"/>
  <property name="mechanicalBeltSlow" type="bool" value="true"/>
  <property name="musicEnabled" type="bool" value="true"/>
  <property name="musicToggleEnabled" type="bool" value="true"/>
  <property name="newBeeperPlayer" type="bool" value="true"/>
  <property name="paper" type="int" value="0"/>
  <property name="password" value=""/>
  <property name="permanentMovement" propertytype="permanentMovementModes" value="Disabled"/>
  <property name="platformMoveable" type="bool" value="true"/>
  <property name="playerColor" type="int" value="67"/>
  <property name="playerReadyConfirmation" type="bool" value="true"/>
  <property name="redefineKeysEnabled" type="bool" value="true"/>
  <property name="shooting" type="bool" value="true"/>
  <property name="shootingPreventJump" type="bool" value="true"/>
  <property name="shouldKillEnemies" type="bool" value="true"/>
  <property name="shouldPickUpItems" type="bool" value="true"/>
  <property name="stepsCount" type="int" value="4"/>
  <property name="stepsEnabled" type="bool" value="true"/>
  <property name="teleportAnimation" type="bool" value="true"/>
  <property name="teleportDisabledTile" type="bool" value="true"/>
  <property name="teleportEnabled" type="bool" value="true"/>
  <property name="teleportSound" type="bool" value="true"/>
  <property name="trampolinEnabled" type="bool" value="true"/>
  <property name="transpasableItems" type="int" value="16"/>
  <property name="ulaPlusValidation" type="bool" value="false"/>
  <property name="useBreakableTile" type="bool" value="true"/>
  <property name="waitPressKeyAfterLoad" type="bool" value="true"/>
 </properties>
 <tileset firstgid="1" name="tiles" tilewidth="8" tileheight="8" tilecount="256" columns="32">
  <image source="tiles.png" width="256" height="64"/>
  <tile id="2" type="solid"/>
  <tile id="3" type="solid"/>
  <tile id="12" type="solid"/>
  <tile id="13" type="solid"/>
  <tile id="29" type="glue"/>
  <tile id="30" type="left"/>
  <tile id="31" type="right"/>
  <tile id="34" type="solid"/>
  <tile id="35" type="solid"/>
  <tile id="43" type="animated"/>
  <tile id="44" type="solid"/>
  <tile id="45" type="solid"/>
  <tile id="52" type="animated"/>
  <tile id="92" type="trampolin"/>
  <tile id="93" type="door"/>
  <tile id="94" type="breakable"/>
  <tile id="95" type="unlockable"/>
  <tile id="127" type="terrain_wall_glue"/>
  <tile id="128" type="animated"/>
  <tile id="130" type="animated"/>
  <tile id="160" type="damage"/>
  <tile id="161" type="damage"/>
  <tile id="162" type="damage"/>
  <tile id="166" type="damage"/>
  <tile id="167" type="damage"/>
  <tile id="193" type="damage"/>
  <tile id="205" type="animated"/>
  <tile id="206" type="damage"/>
  <tile id="207" type="animated-damage"/>
  <tile id="244" type="switcher"/>
  <tile id="246" type="teleport"/>
  <tile id="247" type="flag"/>
  <tile id="251" type="coin"/>
  <tile id="252" type="ammo"/>
  <tile id="253" type="life"/>
  <tile id="254" type="item"/>
  <tile id="255" type="key"/>
 </tileset>
 <tileset firstgid="257" name="sprites" tilewidth="16" tileheight="16" tilecount="48" columns="16" objectalignment="topleft">
  <image source="sprites.png" width="256" height="48"/>
 </tileset>
 <tileset firstgid="305" name="dark tileset" tilewidth="8" tileheight="8" tilecount="256" columns="32">
  <image source="darktiles.png" width="256" height="64"/>
 </tileset>
 <layer id="1" name="map" width="132" height="116">
  <data encoding="csv">
   <chunk x="0" y="0" width="30" height="19">
35,35,35,35,35,35,35,35,35,35,35,35,35,35,35,35,35,35,35,35,35,35,35,35,35,35,35,35,35,35,
35,1,166,166,1,1,1,146,1,1,1,1,146,1,1,1,1,1,1,180,1,1,1,1,180,1,1,1,1,1,
35,1,247,247,1,1,1,146,1,1,1,1,146,1,1,1,1,1,1,180,1,1,1,1,180,1,1,1,1,1,
35,1,247,247,1,124,125,146,1,1,1,1,146,1,1,1,1,1,1,180,1,1,1,1,180,1,1,1,1,1,
35,1,14,15,1,1,1,146,1,1,1,1,146,1,1,124,125,1,1,180,1,1,1,1,180,1,1,1,1,1,
35,1,46,47,1,1,1,255,1,1,1,1,146,1,1,1,1,1,1,180,1,1,1,1,180,1,1,1,1,1,
35,1,1,1,1,1,1,1,1,1,1,1,225,1,1,1,1,1,1,180,1,1,1,1,180,1,1,1,1,1,
35,1,1,1,1,1,1,1,1,124,125,1,1,1,1,1,44,1,1,180,1,1,1,1,180,1,1,1,1,1,
35,1,1,1,1,1,1,1,1,1,1,1,1,1,1,1,124,125,1,180,1,131,131,1,180,1,1,1,1,1,
35,1,1,1,1,1,1,1,1,1,1,1,1,1,1,1,1,124,125,42,43,16,17,42,43,1,1,1,1,1,
35,1,1,1,1,1,124,125,1,1,1,1,1,1,1,1,1,1,1,1,42,48,49,43,1,1,1,1,124,1,
35,1,1,1,1,1,125,1,1,1,1,124,125,1,1,1,1,1,1,1,1,1,1,1,1,1,1,124,125,1,
35,1,1,1,1,1,1,1,1,1,1,1,124,125,1,1,1,1,1,1,1,1,1,1,1,1,1,1,1,1,
35,1,1,1,1,1,1,1,1,1,1,1,1,1,1,1,1,1,1,1,1,1,1,1,1,1,1,1,1,1,
35,1,1,1,1,1,1,1,1,1,1,1,1,1,1,1,1,1,1,1,1,1,1,1,1,1,1,1,1,1,
35,1,124,125,1,1,1,1,1,1,1,1,1,1,1,1,1,1,1,1,1,206,208,1,1,1,1,1,1,1,
35,1,1,124,125,1,1,1,1,1,1,1,1,1,1,1,1,1,1,98,42,43,42,43,97,1,1,1,1,1,
35,1,1,1,1,1,1,1,205,1,1,1,1,1,1,1,1,1,98,42,43,42,43,42,43,97,1,1,1,1,
35,96,96,96,96,36,37,36,37,36,37,36,37,36,37,36,37,36,37,36,37,36,37,36,37,36,37,36,36,37
</chunk>
   <chunk x="30" y="0" width="30" height="19">
8,9,8,9,8,9,8,9,8,9,8,9,8,9,8,9,8,9,8,9,8,9,8,9,8,9,8,9,8,9,
1,1,1,1,1,1,1,1,1,1,1,1,1,1,146,1,1,1,1,1,1,1,1,1,1,1,1,1,1,8,
1,1,1,1,1,1,1,1,1,1,1,1,1,1,146,1,1,1,1,1,1,1,1,1,1,1,1,1,1,9,
1,1,1,1,1,1,1,1,1,1,1,1,1,1,146,1,1,1,1,1,1,124,125,1,1,1,1,1,1,8,
1,1,1,1,1,1,1,1,1,124,125,1,1,1,146,1,1,1,1,1,1,1,1,1,1,1,1,1,1,9,
1,1,1,1,1,1,1,1,1,1,1,1,1,1,93,1,1,1,1,1,1,1,33,1,1,1,1,1,1,8,
1,1,1,1,252,1,1,33,1,1,1,1,1,1,1,1,1,1,1,1,1,1,1,1,1,1,1,1,1,9,
1,1,1,1,33,1,1,1,1,1,1,1,1,1,1,1,1,1,1,1,1,124,125,1,1,1,103,102,104,8,
1,1,1,1,1,1,1,1,1,1,1,33,1,1,1,1,1,1,1,1,124,125,1,1,1,1,1,102,1,9,
1,1,1,1,1,1,1,1,1,1,1,1,1,1,1,1,1,33,1,1,1,1,1,1,1,1,1,102,1,8,
1,1,1,1,1,1,124,125,1,1,1,1,1,1,1,1,1,1,1,1,1,1,1,1,1,1,1,102,1,9,
1,1,1,1,1,124,125,1,1,1,1,1,1,1,1,1,1,1,1,1,1,1,1,1,1,1,1,102,1,8,
1,1,1,1,1,1,1,1,1,1,1,1,1,1,1,1,1,1,1,1,124,125,124,125,1,1,1,102,1,9,
1,1,1,1,1,1,1,1,1,1,1,1,1,1,1,1,1,1,1,124,125,124,125,1,1,1,1,102,1,8,
1,1,1,1,1,1,1,1,1,1,1,1,1,1,1,1,1,1,1,1,1,1,1,1,1,1,1,102,1,9,
1,1,1,1,1,1,1,1,1,1,1,1,1,1,1,1,1,1,1,1,1,1,1,1,1,1,1,102,1,8,
1,1,1,1,1,1,1,1,1,1,1,1,1,1,1,1,125,1,1,1,1,1,1,1,1,1,1,102,1,9,
1,1,1,1,1,205,1,100,20,21,21,21,21,22,99,190,124,125,1,1,1,1,1,1,1,1,1,102,1,8,
55,55,55,55,55,55,55,55,55,55,55,55,55,55,55,55,55,55,55,55,55,55,55,55,55,55,1,102,1,9
</chunk>
   <chunk x="60" y="0" width="30" height="19">
35,35,35,35,35,35,35,35,35,35,35,35,35,35,35,35,35,35,35,35,35,35,35,35,35,35,35,35,35,35,
35,1,1,1,1,1,1,1,1,1,1,1,1,42,43,42,43,1,1,1,1,1,1,1,1,1,1,1,1,35,
35,1,1,1,1,1,1,1,1,144,144,144,1,35,247,247,35,1,1,1,1,1,1,1,144,1,1,254,1,35,
35,1,144,1,255,1,1,1,1,144,144,1,1,35,247,247,35,1,1,1,1,1,1,144,144,1,144,1,1,35,
35,1,144,144,144,144,1,1,1,1,1,1,1,94,94,94,94,1,1,1,1,1,1,1,144,1,144,1,1,35,
35,1,1,1,1,1,1,16,17,1,1,1,1,1,1,1,1,1,1,1,1,16,17,1,1,144,144,1,1,35,
35,1,1,1,1,1,144,48,49,1,1,1,1,144,144,1,1,1,1,1,1,48,49,1,1,1,1,1,1,35,
35,1,1,1,1,1,1,144,1,1,198,1,144,144,144,1,1,1,1,1,1,198,1,1,166,1,1,1,1,35,
35,1,1,1,166,1,144,1,144,1,1,1,1,1,1,1,144,1,144,1,1,1,1,1,1,1,1,1,1,35,
35,1,1,1,1,1,1,1,1,1,1,1,1,1,16,17,144,1,144,1,1,1,1,1,1,144,144,1,1,35,
35,1,1,1,1,1,1,1,1,1,1,1,1,1,48,49,1,1,1,1,1,1,1,1,1,1,144,1,1,35,
35,1,1,1,1,1,1,1,1,1,1,1,1,1,1,1,1,1,1,1,1,1,1,1,1,1,144,1,1,35,
35,1,1,144,144,1,1,1,1,1,1,1,1,1,1,1,1,1,1,1,1,1,198,1,1,1,144,144,144,35,
35,1,1,144,144,1,166,1,1,1,144,144,1,1,1,1,198,1,1,1,1,1,1,1,1,1,1,1,1,35,
35,1,1,144,1,1,1,1,1,144,1,1,1,1,1,1,198,1,1,1,1,144,144,1,1,1,1,1,1,35,
35,1,1,1,1,1,198,1,1,1,144,1,144,1,1,1,1,1,1,1,1,144,144,144,144,144,1,1,1,35,
35,1,1,1,1,1,1,1,249,1,1,1,1,1,1,1,1,1,1,1,1,1,144,144,1,1,1,1,1,35,
35,1,1,1,1,1,1,1,1,1,1,1,1,1,1,1,1,1,1,1,1,1,1,1,1,1,1,1,1,35,
12,12,12,12,12,12,12,12,12,12,1,1,1,1,1,1,1,1,1,1,12,12,12,12,12,12,12,12,12,12
</chunk>
   <chunk x="0" y="19" width="30" height="19">
41,1,1,1,1,50,51,50,51,50,51,50,51,50,51,50,51,50,51,50,51,50,51,50,51,50,51,50,51,51,
40,1,1,1,1,1,1,1,1,1,1,1,1,1,1,1,181,1,1,181,1,1,1,95,166,166,95,1,1,40,
41,1,1,1,1,1,1,1,1,225,1,1,1,1,1,1,180,1,256,180,1,1,1,95,247,247,95,1,1,41,
40,1,1,124,125,1,1,1,1,1,1,1,1,44,1,1,20,21,21,22,1,1,1,95,247,247,95,1,1,40,
41,1,1,1,124,125,1,1,1,53,1,1,1,124,125,1,1,1,1,1,1,1,1,95,52,52,95,1,1,41,
40,1,1,1,1,1,1,1,1,1,1,1,124,125,1,1,1,172,1,1,1,1,1,1,1,1,1,1,1,40,
41,1,1,1,1,1,255,1,1,1,1,1,1,1,1,1,1,1,1,1,1,1,1,1,1,1,1,1,1,41,
40,1,1,1,1,1,44,1,1,172,1,1,1,1,1,1,1,166,252,1,1,1,1,172,1,124,125,1,1,40,
41,1,1,1,1,1,1,1,1,1,1,1,1,1,1,1,1,52,52,1,1,1,1,1,124,125,1,93,93,41,
40,1,124,125,1,1,1,1,1,1,1,1,1,1,1,1,1,1,1,1,1,1,1,166,1,1,1,128,128,40,
41,1,1,1,172,1,1,1,52,52,52,99,1,1,1,1,1,1,1,1,1,1,100,52,52,1,1,128,128,41,
40,1,1,1,1,1,1,1,1,103,52,52,97,1,1,1,1,1,1,1,1,98,52,52,104,1,1,128,128,40,
41,1,1,1,129,1,1,1,1,1,1,1,1,97,1,1,1,1,1,1,98,1,1,1,1,1,1,128,128,41,
40,1,1,1,30,30,30,1,1,1,1,1,1,1,97,1,1,1,1,98,1,1,124,125,1,1,1,128,128,40,
41,1,1,1,1,1,1,1,1,1,1,124,125,1,1,52,52,52,52,1,1,1,1,1,1,1,1,128,128,41,
40,1,1,1,1,1,1,1,1,1,1,1,1,1,1,1,1,1,1,1,1,1,172,1,1,172,1,128,128,40,
41,163,1,163,1,196,196,196,196,196,196,196,196,196,196,196,196,196,196,1,1,1,1,1,1,1,1,128,128,94,
40,195,166,195,163,31,31,31,31,161,161,162,32,32,32,32,161,162,10,11,1,1,254,1,1,253,1,128,128,94,
41,6,7,6,7,6,7,6,7,6,7,6,7,6,7,6,7,6,7,6,7,6,7,6,7,6,7,6,6,7
</chunk>
   <chunk x="30" y="19" width="30" height="19">
11,10,11,10,11,10,11,10,11,10,11,10,11,10,11,10,11,10,11,10,11,10,11,10,11,10,1,102,1,18,
19,128,128,128,128,128,128,128,128,128,128,128,128,128,1,1,1,1,1,1,1,1,1,1,1,1,1,102,1,19,
18,128,128,128,128,128,128,128,128,128,128,128,128,128,1,1,1,1,96,1,1,1,1,1,1,1,1,102,1,18,
19,128,128,128,128,128,128,128,128,128,128,128,128,128,1,1,198,1,1,1,206,206,1,252,1,248,1,102,1,19,
18,106,106,106,106,106,106,106,106,101,13,13,13,13,13,13,13,13,13,13,13,13,13,13,13,13,13,13,13,18,
19,1,1,1,1,1,1,1,1,101,125,1,1,1,1,1,1,1,1,1,1,1,1,1,1,1,1,1,1,19,
18,1,1,1,1,1,1,1,1,101,1,1,1,1,1,1,1,1,1,1,1,1,1,1,1,1,1,1,1,18,
19,1,1,1,1,1,1,1,1,101,1,1,124,125,1,1,1,1,1,1,1,124,125,1,1,1,1,1,1,19,
18,1,124,125,1,1,1,1,1,101,1,1,1,124,125,1,1,1,1,1,1,1,124,125,1,1,1,1,1,18,
19,1,1,124,125,1,13,13,13,13,97,1,1,1,1,1,1,1,1,1,1,1,1,1,1,1,1,1,1,19,
18,1,1,1,1,1,1,1,1,13,13,97,1,1,1,1,13,13,13,13,1,1,1,1,1,1,1,1,1,18,
19,1,1,1,1,1,1,1,1,1,13,13,97,1,1,1,1,1,1,1,1,1,1,1,1,1,1,1,1,19,
18,1,1,1,1,124,125,1,1,1,1,13,13,97,1,1,1,1,1,1,1,1,1,1,1,124,125,1,1,18,
19,1,1,1,124,125,1,1,1,1,1,1,13,13,13,13,13,1,1,1,1,1,1,1,1,1,124,125,1,19,
18,1,1,1,1,1,1,1,1,1,1,1,1,1,1,1,1,1,1,1,1,1,1,1,1,1,1,1,1,18,
19,1,1,1,1,1,1,1,1,1,1,1,1,124,125,1,1,1,1,1,101,13,13,13,101,1,1,1,1,19,
1,1,1,1,245,1,1,1,1,1,1,1,1,1,124,125,1,1,1,1,101,1,1,1,101,1,1,255,1,18,
1,1,1,1,1,1,1,1,1,1,1,1,1,1,1,256,1,1,1,1,101,1,1,1,101,1,163,93,163,19,
4,4,4,4,4,4,4,4,4,4,4,4,4,4,4,4,4,4,4,4,4,4,4,4,4,4,4,4,4,4
</chunk>
   <chunk x="60" y="19" width="30" height="19">
35,35,35,35,35,35,35,35,35,35,96,96,96,96,96,96,96,96,96,96,35,35,35,35,35,35,35,35,35,35,
35,171,171,171,171,171,171,171,171,202,1,1,1,201,202,1,1,1,144,1,201,171,171,171,171,171,171,171,171,35,
35,171,171,171,171,171,171,171,171,204,1,1,201,171,171,171,202,1,1,201,171,171,171,171,171,171,171,171,171,35,
35,171,152,153,171,171,171,171,171,202,1,201,171,152,153,171,171,202,201,171,171,171,152,153,171,171,171,171,171,35,
35,171,184,185,171,171,171,171,171,171,171,171,171,184,185,171,171,171,171,171,171,171,184,185,171,171,171,171,171,35,
35,171,171,171,171,171,171,171,171,171,171,171,171,171,171,171,171,204,203,171,171,171,171,171,171,171,171,171,171,35,
35,171,171,171,171,152,153,171,171,204,1,1,203,171,171,171,204,1,1,203,171,171,171,171,171,171,171,171,171,35,
35,171,171,171,171,184,185,171,171,202,1,1,1,203,171,204,1,1,1,1,203,171,171,171,171,171,171,171,171,35,
35,171,171,171,171,171,171,171,171,204,1,1,1,1,1,1,1,1,1,198,1,171,171,171,171,171,152,153,171,35,
35,171,171,171,171,171,171,171,171,202,1,1,1,166,1,1,252,1,1,1,1,171,171,171,171,171,184,185,171,35,
35,171,171,171,171,171,171,171,171,204,1,144,1,42,43,42,43,1,1,1,1,171,171,171,171,171,171,171,171,35,
35,171,171,152,153,171,171,171,204,1,1,144,144,35,247,247,35,1,1,1,1,171,171,171,171,171,171,171,171,35,
35,171,171,184,185,171,171,204,1,1,144,144,1,35,247,247,35,1,1,1,1,203,171,171,171,171,171,171,171,35,
35,171,171,171,171,171,171,202,1,1,1,1,1,1,1,1,1,1,1,1,1,1,171,152,153,171,171,171,171,35,
35,171,171,171,171,171,171,171,202,1,1,166,1,1,1,1,1,1,1,1,1,1,171,184,185,171,171,171,171,35,
35,152,153,171,171,171,171,171,171,202,1,1,1,249,1,198,1,144,144,1,1,201,171,171,171,171,171,171,171,35,
35,184,185,171,171,171,171,171,171,204,1,1,1,1,1,1,1,144,1,1,1,171,171,171,171,171,171,171,171,35,
35,171,171,171,171,171,171,171,171,202,1,1,1,1,1,1,1,1,1,1,201,171,171,171,171,171,171,171,171,35,
35,35,35,35,35,35,35,35,35,35,35,35,35,35,35,35,35,35,35,35,35,35,35,35,35,35,35,35,35,35
</chunk>
  </data>
 </layer>
 <objectgroup id="2" name="objects">
  <object id="13" name="enemy_2_end" x="432" y="280">
   <properties>
    <property name="enemy" type="object" value="139"/>
   </properties>
   <point/>
  </object>
  <object id="17" name="enemy_4" type="enemy" gid="273" x="400" y="88" width="16" height="16">
   <properties>
    <property name="color" type="int" value="5"/>
    <property name="shoot" type="bool" value="true"/>
   </properties>
  </object>
  <object id="18" name="enemy_4_end" x="280" y="64">
   <properties>
    <property name="enemy" type="object" value="17"/>
   </properties>
   <point/>
  </object>
  <object id="53" type="text" x="144" y="168">
   <properties>
    <property name="es" value="Con esta llave puedes abrir   caminos. Usalo con cabeza"/>
    <property name="itemAction" type="int" value="255"/>
   </properties>
   <point/>
  </object>
  <object id="54" type="text" x="176" y="288">
   <properties>
    <property name="en" value="This increased my life!!!"/>
    <property name="es" value="Esto me da la  vida... lit lit"/>
    <property name="itemAction" type="int" value="253"/>
   </properties>
   <point/>
  </object>
  <object id="58" type="text" x="200" y="288">
   <properties>
    <property name="es" value="Municion de    mentira"/>
    <property name="itemAction" type="int" value="252"/>
   </properties>
   <point/>
  </object>
  <object id="60" type="text" x="72" y="224">
   <properties>
    <property name="adventureState" type="int" value="3"/>
    <property name="es" value="Con uno mas ya puedo tocar la bateria"/>
    <property name="itemAction" type="int" value="197"/>
   </properties>
   <point/>
  </object>
  <object id="62" name="1" type="text" x="32" y="248">
   <properties>
    <property name="es" value="Espero que sea un fuego fatuo de esos"/>
    <property name="itemAction" type="int" value="0"/>
   </properties>
   <point/>
  </object>
  <object id="65" type="text" x="360" y="288">
   <properties>
    <property name="es" value="Alguien hoy no entra a casa"/>
    <property name="itemAction" type="int" value="191"/>
   </properties>
   <point/>
  </object>
  <object id="68" name="1" type="text" x="184" y="224">
   <properties>
    <property name="adventureState" type="int" value="2"/>
    <property name="es" value="Esto me sirve  para tocar.    Faltan palos"/>
    <property name="itemAction" type="int" value="165"/>
   </properties>
   <point/>
  </object>
  <object id="70" type="screen_attributes" x="560" y="200">
   <properties>
    <property name="background" type="int" value="70"/>
    <property name="bossEnergy" type="int" value="2"/>
    <property name="cenital" type="bool" value="true"/>
    <property name="dark" type="bool" value="false"/>
    <property name="finalScreen" type="bool" value="false"/>
    <property name="hud2" type="bool" value="true"/>
    <property name="music" value="music3"/>
    <property name="teleportTo" type="int" value="4"/>
   </properties>
   <point/>
  </object>
  <object id="72" name="1" type="text" x="136" y="136">
   <properties>
    <property name="adventureState" type="int" value="4"/>
    <property name="es" value="Ya tengo todo!!"/>
    <property name="itemAction" type="int" value="197"/>
   </properties>
   <point/>
  </object>
  <object id="73" type="text" x="280" y="136">
   <properties>
    <property name="es" value="Instrucciones  plataforma.    Abajo y subes."/>
    <property name="itemAction" type="int" value="0"/>
   </properties>
   <point/>
  </object>
  <object id="74" type="text" x="368" y="176">
   <properties>
    <property name="es" value="Este no me valeesta roto"/>
    <property name="itemAction" type="int" value="0"/>
   </properties>
   <point/>
  </object>
  <object id="75" name="gota1" gid="279" x="216" y="216" width="16" height="16">
   <properties>
    <property name="life" type="int" value="99"/>
    <property name="mode" propertytype="enemyMovement" value="one direction"/>
    <property name="sprites" type="int" value="0"/>
   </properties>
  </object>
  <object id="77" x="216" y="280">
   <properties>
    <property name="enemy" type="object" value="75"/>
   </properties>
   <point/>
  </object>
  <object id="78" name="1" type="text" x="184" y="224">
   <properties>
    <property name="adventureState" type="int" value="5"/>
    <property name="es" value="Vamos a tocar!!"/>
    <property name="itemAction" type="int" value="165"/>
   </properties>
   <point/>
  </object>
  <object id="79" name="reloj1" gid="285" x="112" y="160" width="16" height="16">
   <properties>
    <property name="color" type="int" value="2"/>
    <property name="life" type="int" value="99"/>
    <property name="mode" propertytype="enemyMovement" value="clockwise"/>
    <property name="speed" type="int" propertytype="enemySpeed" value="0"/>
   </properties>
  </object>
  <object id="80" x="160" y="184">
   <properties>
    <property name="enemy" type="object" value="79"/>
   </properties>
   <point/>
  </object>
  <object id="98" type="text" x="440" y="176">
   <properties>
    <property name="es" value="Cuando mueras  resucitas aqui"/>
    <property name="itemAction" type="int" value="0"/>
   </properties>
   <point/>
  </object>
  <object id="108" name="1" type="text" x="136" y="208">
   <properties>
    <property name="adventureState" type="int" value="0"/>
    <property name="es" value="Hola?          Hay alguien?   McFly McFly!!"/>
    <property name="itemAction" type="int" value="0"/>
   </properties>
   <point/>
  </object>
  <object id="110" name="trap1" gid="285" x="168" y="72" width="16" height="16">
   <properties>
    <property name="life" type="int" value="99"/>
    <property name="mode" propertytype="enemyMovement" value="trap diagonal"/>
    <property name="speed" type="int" propertytype="enemySpeed" value="2"/>
    <property name="sprites" type="int" value="0"/>
    <property name="trapContinousMode" propertytype="enemyTrapContinousMode" value="no"/>
   </properties>
  </object>
  <object id="122" x="16" y="288">
   <properties>
    <property name="enemy" type="object" value="172"/>
   </properties>
   <point/>
  </object>
  <object id="123" type="text" x="72" y="224">
   <properties>
    <property name="adventureState" type="int" value="1"/>
    <property name="es" value="No se que hacercon esto.      Buscare algo   que aporrear"/>
    <property name="itemAction" type="int" value="197"/>
   </properties>
   <point/>
  </object>
  <object id="124" type="text" x="160" y="112">
   <properties>
    <property name="adventureState" type="int" value="1"/>
    <property name="es" value="No se que hacercon esto.      Buscare algo   que aporrear"/>
    <property name="itemAction" type="int" value="0"/>
   </properties>
   <point/>
  </object>
  <object id="125" name="enemy_5" type="enemy" gid="277" x="48" y="128" width="16" height="16">
   <properties>
    <property name="life" type="int" value="4"/>
   </properties>
  </object>
  <object id="126" x="120" y="128">
   <properties>
    <property name="enemy" type="object" value="125"/>
   </properties>
   <point/>
  </object>
  <object id="129" type="screen_attributes" x="456" y="208">
   <properties>
    <property name="dark" type="bool" value="false"/>
    <property name="music" value="music2"/>
   </properties>
   <point/>
  </object>
  <object id="136" name="enemy_4" type="enemy" gid="273" x="280" y="8" width="16" height="16">
   <properties>
    <property name="color" type="int" value="3"/>
    <property name="shoot" type="bool" value="true"/>
   </properties>
  </object>
  <object id="137" name="enemy_4_end" x="416" y="8">
   <properties>
    <property name="enemy" type="object" value="136"/>
   </properties>
   <point/>
  </object>
  <object id="139" name="enemyPuntos" type="enemy" gid="283" x="392" y="256" width="16" height="16">
   <properties>
    <property name="color" type="int" value="6"/>
    <property name="life" type="int" value="3"/>
    <property name="mode" propertytype="enemyMovement" value="anticlockwise"/>
   </properties>
  </object>
  <object id="140" name="pantalla 3" type="screen_attributes" x="184" y="192">
   <properties>
    <property name="music" value="music1"/>
    <property name="teleportTo" type="int" value="6"/>
   </properties>
   <point/>
  </object>
  <object id="141" name="pantalla 1" type="screen_attributes" x="80" y="16">
   <properties>
    <property name="background" type="int" value="79"/>
    <property name="music" value="no_music"/>
    <property name="teleportTo" type="int" value="0"/>
   </properties>
   <point/>
  </object>
  <object id="142" name="1" type="text" x="272" y="280">
   <properties>
    <property name="adventureState" type="int" value="0"/>
    <property name="es" value="Un interruptor en una piramideQue modernidad!"/>
    <property name="itemAction" type="int" value="0"/>
   </properties>
   <point/>
  </object>
  <object id="144" type="screen_attributes" x="392" y="64">
   <properties>
    <property name="bossEnergy" type="int" value="2"/>
    <property name="finalScreen" type="bool" value="false"/>
   </properties>
   <point/>
  </object>
  <object id="145" type="screen_attributes" x="568" y="96">
   <properties>
    <property name="background" type="int" value="70"/>
    <property name="cenital" type="bool" value="true"/>
    <property name="hud2" type="bool" value="true"/>
    <property name="music" value="music3"/>
    <property name="teleportTo" type="int" value="1"/>
   </properties>
   <point/>
  </object>
  <object id="147" type="text" x="512" y="24">
   <properties>
    <property name="es" value="Menudo tesoro"/>
    <property name="itemAction" type="int" value="254"/>
   </properties>
   <point/>
  </object>
  <object id="153" name="trap1" gid="285" x="592" y="72" width="16" height="16">
   <properties>
    <property name="life" type="int" value="99"/>
    <property name="mode" propertytype="enemyMovement" value="trap all directions"/>
    <property name="speed" type="int" propertytype="enemySpeed" value="2"/>
    <property name="trapContinousMode" propertytype="enemyTrapContinousMode" value="all including diagonals"/>
   </properties>
  </object>
  <object id="154" gid="281" x="592" y="160" width="16" height="16">
   <properties>
    <property name="life" type="int" value="5"/>
    <property name="mode" propertytype="enemyMovement" value="pursuit"/>
    <property name="speed" type="int" propertytype="enemySpeed" value="1"/>
   </properties>
  </object>
  <object id="156" gid="281" x="384" y="216" width="16" height="16">
   <properties>
    <property name="color" type="int" value="2"/>
    <property name="mode" value="alert"/>
    <property name="speed" type="int" propertytype="enemySpeed" value="1"/>
   </properties>
  </object>
  <object id="157" x="368" y="216">
   <properties>
    <property name="enemy" type="object" value="156"/>
   </properties>
   <point/>
  </object>
  <object id="161" name="trap1" gid="285" x="536" y="40" width="16" height="16">
   <properties>
    <property name="life" type="int" value="99"/>
    <property name="mode" propertytype="enemyMovement" value="trap all directions"/>
    <property name="speed" type="int" propertytype="enemySpeed" value="2"/>
    <property name="trapContinousMode" propertytype="enemyTrapContinousMode" value="no"/>
   </properties>
  </object>
  <object id="162" name="trap1" gid="285" x="648" y="40" width="16" height="16">
   <properties>
    <property name="inmortal" type="bool" value="true"/>
    <property name="mode" propertytype="enemyMovement" value="trap all directions"/>
    <property name="speed" type="int" propertytype="enemySpeed" value="2"/>
    <property name="trapContinousMode" propertytype="enemyTrapContinousMode" value="no"/>
   </properties>
  </object>
  <object id="172" name="plataf1" type="platform" gid="287" x="16" y="168" width="16" height="16">
   <properties>
    <property name="sprites" type="int" value="0"/>
   </properties>
  </object>
  <object id="173" name="plataf2" type="platform" gid="287" x="320" y="128" width="16" height="16">
   <properties>
    <property name="life" type="int" value="99"/>
   </properties>
  </object>
  <object id="200" name="enemy_4" type="enemy" gid="273" x="488" y="160" width="16" height="16">
   <properties>
    <property name="color" type="int" value="3"/>
    <property name="life" type="int" value="99"/>
    <property name="shoot" type="bool" value="true"/>
   </properties>
  </object>
  <object id="201" name="enemy_4_end" x="696" y="280">
   <properties>
    <property name="enemy" type="object" value="200"/>
   </properties>
   <point/>
  </object>
  <object id="202" name="enemy_5" type="enemy" gid="277" x="696" y="160" width="16" height="16">
   <properties>
    <property name="life" type="int" value="99"/>
    <property name="shoot" type="bool" value="true"/>
   </properties>
  </object>
  <object id="203" x="488" y="280">
   <properties>
    <property name="enemy" type="object" value="202"/>
   </properties>
   <point/>
  </object>
  <object id="207" name="player" type="player" gid="257" x="128" y="248" width="16" height="16">
   <properties>
    <property name="color" type="int" value="67"/>
    <property name="energy" type="int" value="5"/>
    <property name="lives" type="int" value="10"/>
   </properties>
  </object>
 </objectgroup>
</map>
